img/svg/behance.svg

<?xml version="1.0" encoding="UTF-8"?>
<svg viewBox="0 0 32 32" xmlns="http://www.w3.org/2000/svg">
  <path d="m12.877 12.679c0-1.5095-1.0269-1.5095-1.0269-1.5095h-4.225v3.2389h3.9631c0.6848-3e-4 1.2888-0.2193 1.2888-1.7294z"/>
  <path d="m11.851 16.645h-4.2253v3.8793h4.0302c0.6063-0.0173 1.7252-0.2072 1.7252-1.8856 0-2.014-1.5301-1.9937-1.5301-1.9937z"/>
  <path d="m22.668 14.408c-2.2421 0-2.5547 2.2375-2.5547 2.2375h4.7681c3e-4 0 0.0288-2.2375-2.2134-2.2375z"/>
  <path d="m16 0c-8.8366 0-16 7.1637-16 16 0 8.8363 7.1634 16 16 16 8.8366 0 16-7.1637 16-16 0-8.8363-7.1634-16-16-16zm3.4884 9.4438h5.9888v1.7874h-5.9888v-1.7874zm-3.0268 9.375c0 4.4303-4.6106 4.2846-4.6106 4.2846h-7.5533v-14.515h7.5529c2.2955 0 4.1075 1.2672 4.1075 3.8645 0 2.5977-2.215 2.7623-2.215 2.7623 2.9198 0 2.7185 3.6033 2.7185 3.6033zm6.2347 2.2893c2.4127 0 2.3272-1.5615 2.3272-1.5615h2.5544c0 4.1441-4.9667 3.8603-4.9667 3.8603-5.9604 0-5.5771-5.5489-5.5771-5.5489s-0.0045-5.5763 5.5764-5.5763c5.8752 0 5.0526 6.3001 5.0526 6.3001h-7.5213c0 2.6972 2.5545 2.5263 2.5545 2.5263z"/>
</svg>

<svg width="32" height="32" viewBox="0 0 32 32" fill="none" xmlns="http://www.w3.org/2000/svg">
<path d="M12.8774 12.6786C12.8774 11.1691 11.8505 11.1691 11.8505 11.1691H11.3067H7.62549V14.408H11.5886C12.2734 14.4077 12.8774 14.1887 12.8774 12.6786Z" fill="black"/>
<path d="M11.8508 16.6452H7.62549V20.5245H11.6557C12.262 20.5072 13.3809 20.3173 13.3809 18.6389C13.3809 16.6249 11.8508 16.6452 11.8508 16.6452Z" fill="black"/>
<path d="M22.668 14.4077C20.4259 14.4077 20.1133 16.6452 20.1133 16.6452H24.8814C24.8817 16.6452 24.9102 14.4077 22.668 14.4077Z" fill="black"/>
<path d="M16 0C7.16342 0 0 7.16374 0 16C0 24.8363 7.16342 32 16 32C24.8366 32 32 24.8363 32 16C32 7.16374 24.8366 0 16 0ZM19.4884 9.44385H25.4772V11.2313H19.4884V9.44385ZM16.4616 18.8189C16.4616 23.2492 11.851 23.1035 11.851 23.1035H7.62566H7.50159H4.29766V8.58877H7.50159H7.62566H11.8506C14.1461 8.58877 15.9581 9.856 15.9581 12.4533C15.9581 15.051 13.7431 15.2156 13.7431 15.2156C16.6629 15.2156 16.4616 18.8189 16.4616 18.8189ZM22.6963 21.1082C25.109 21.1082 25.0235 19.5467 25.0235 19.5467H27.5779C27.5779 23.6908 22.6112 23.407 22.6112 23.407C16.6508 23.407 17.0341 17.8581 17.0341 17.8581C17.0341 17.8581 17.0296 12.2818 22.6105 12.2818C28.4857 12.2818 27.6631 18.5819 27.6631 18.5819H20.1418C20.1418 21.2791 22.6963 21.1082 22.6963 21.1082Z" fill="black"/>
</svg>
